X:128
T:Roller Bowler
M:C|
L:1/8
K:C
G2|\
c2B2 G2E2   |G2  G4 A2|G3D  F2B,2|(CE)G,4 G2|
A2G2 E2C2   |(EF)G4 A2|G3D  F2B,2|C6 EE|
F2EE C2A,A, |C2  C4 A2|
G2E2 F2B,2  |C6     A2|G3D  F2B,2|(CE) G,4 G,G,|
C2CC B,2G,G,|C2  C4 A2|G2D2 F2B,2|C6  ||
